!!!OTL: ES RITT EIN JAEGER WOHLGEMUTH
!!!ARE: Europa, Mitteleuropa, Deutschland, Schlesien ?, Jaegerndorf
!!!SCT: E0219
!!!YEM: Copyright 1995, estate of Helmut Schaffrath.
**kern
*ICvox
*Ivox
*M2/4
*k[f#]
*G:
{8d
=1
8g
8a
8b
8cc
=2
8dd
8ee
8dd}
{8b
=3
8a
8ee
8dd
16cc
16cc
=4
8b
8a
8b}
{8cc
=5
4b
4a
=6
4b
8b
8dd
=7
4b
4a
=8
4g
8r}
==
!!!AGN: erzaehlendes Volks - Lied, Mahn -, Moral - Lied, Strafe
!!!ONB: ESAC (Essen Associative Code) Database: ERK1
!!!AMT: simple duple
!!!AIN: vox
!!!EED: Helmut Schaffrath
!!!EEV: 1.0
*-
